arcade/_inc/controller.svg

<svg version="1.2" baseProfile="tiny" xmlns="http://www.w3.org/2000/svg" width="598.189" height="350.26" xml:space="preserve"><path fill="#F4F4F4" d="M107.527 100.097c-49.126 0-88.963 39.837-88.963 88.959 0 49.126 39.837 88.963 88.963 88.963 49.125 0 88.963-39.836 88.963-88.963 0-49.125-39.836-88.963-88.963-88.963v.004zm0 1.845c48.128 0 87.118 38.989 87.118 87.118s-38.989 87.119-87.118 87.119c-48.133 0-87.122-38.984-87.122-87.12 0-48.126 38.989-87.115 87.118-87.115l.004-.002z"/><path fill="#F4F4F4" d="M107.527 151.53c-20.715 0-37.534 16.817-37.534 37.534 0 20.715 16.818 37.533 37.534 37.533 20.716 0 37.534-16.817 37.534-37.533s-16.817-37.534-37.534-37.534zm0 1.845c19.718 0 35.689 15.97 35.689 35.689 0 19.718-15.97 35.688-35.689 35.688-19.718 0-35.689-15.97-35.689-35.688s15.971-35.689 35.689-35.689zM107.527 129.934l4.526 17.182h-9.052l4.526-17.182zM65.698 147.231l15.365 8.965-6.371 6.4-8.994-15.365zM65.583 184.537v9.053l-17.21-4.526 17.21-4.527zM74.692 215.528l6.371 6.398-15.365 8.966 8.994-15.364zM103.001 231.002h9.052l-4.526 17.182-4.526-17.182zM140.39 215.528l8.937 15.335-15.336-8.937 6.399-6.398zM149.475 184.537l17.239 4.526-17.239 4.526v-9.052zM149.326 147.26l-8.937 15.337-6.4-6.4 15.337-8.937z"/><g fill="#F4F4F4"><path d="M299.868 115.579c-18.162 0-32.892 14.73-32.892 32.892 0 18.162 14.73 32.922 32.892 32.922 18.161 0 32.922-14.759 32.922-32.922 0-18.162-14.759-32.892-32.922-32.892zm0 1.845c17.165 0 31.076 13.882 31.076 31.047s-13.911 31.077-31.076 31.077c-17.164 0-31.047-13.912-31.047-31.077s13.883-31.047 31.047-31.047z"/><path d="M299.868 126.101c-12.345 0-22.37 10.025-22.37 22.37s10.025 22.371 22.37 22.371c12.346 0 22.37-10.026 22.37-22.371s-10.024-22.37-22.37-22.37zm0 1.844c11.347 0 20.525 9.178 20.525 20.525s-9.179 20.525-20.525 20.525c-11.348 0-20.525-9.178-20.525-20.525s9.178-20.525 20.525-20.525z"/></g><g fill="#F4F4F4"><path d="M383.354 115.579c-18.164 0-32.894 14.731-32.894 32.892 0 18.162 14.731 32.893 32.894 32.893 18.161 0 32.922-14.731 32.922-32.893s-14.76-32.892-32.922-32.892zm0 1.845c17.163 0 31.076 13.883 31.076 31.047 0 17.165-13.913 31.047-31.076 31.047-17.166 0-31.048-13.883-31.048-31.047.001-17.165 13.882-31.047 31.048-31.047z"/><path d="M383.354 126.101c-12.346 0-22.371 10.025-22.371 22.37s10.025 22.371 22.371 22.371c12.344 0 22.369-10.026 22.369-22.371s-10.025-22.37-22.369-22.37zm0 1.844c11.348 0 20.523 9.178 20.523 20.525s-9.178 20.525-20.523 20.525c-11.348 0-20.526-9.178-20.526-20.525s9.179-20.525 20.526-20.525z"/></g><g fill="#F4F4F4"><path d="M466.839 115.579c-18.162 0-32.893 14.731-32.893 32.892 0 18.162 14.73 32.893 32.893 32.893s32.922-14.731 32.922-32.893-14.76-32.892-32.922-32.892zm0 1.845c17.165 0 31.077 13.883 31.077 31.047 0 17.165-13.912 31.047-31.077 31.047s-31.048-13.883-31.048-31.047c0-17.165 13.884-31.047 31.048-31.047z"/><path d="M466.839 126.101c-12.346 0-22.371 10.025-22.371 22.37s10.025 22.371 22.371 22.371c12.344 0 22.371-10.026 22.371-22.371s-10.027-22.37-22.371-22.37zm0 1.844c11.348 0 20.525 9.178 20.525 20.525s-9.178 20.525-20.525 20.525-20.525-9.178-20.525-20.525 9.177-20.525 20.525-20.525z"/></g><g fill="#F4F4F4"><path d="M547.962 34.457c-18.162 0-32.892 14.731-32.892 32.892 0 18.162 14.731 32.922 32.892 32.922 18.163 0 32.893-14.76 32.893-32.922-.009-18.161-14.742-32.892-32.896-32.892h.003zm0 1.845c17.165 0 31.048 13.884 31.048 31.047 0 17.165-13.883 31.077-31.048 31.077-17.164 0-31.047-13.912-31.047-31.077 0-17.164 13.883-31.047 31.052-31.047h-.005z"/><path d="M547.962 44.979c-12.345 0-22.369 10.026-22.369 22.371s10.024 22.398 22.369 22.398c12.346 0 22.37-10.054 22.37-22.398s-10.024-22.371-22.37-22.371zm0 1.844c11.349 0 20.525 9.178 20.525 20.526s-9.177 20.554-20.525 20.554c-11.348 0-20.524-9.206-20.524-20.554s9.176-20.526 20.524-20.526z"/></g><g fill="#F4F4F4"><path d="M299.868 197.507c-18.162 0-32.892 14.759-32.892 32.922 0 18.161 14.73 32.892 32.892 32.892 18.161 0 32.922-14.73 32.922-32.892 0-18.162-14.759-32.922-32.922-32.922zm0 1.845c17.165 0 31.076 13.911 31.076 31.077 0 17.164-13.911 31.047-31.076 31.047-17.164 0-31.047-13.883-31.047-31.047 0-17.165 13.883-31.077 31.047-31.077z"/><path d="M299.868 208.06c-12.345 0-22.37 10.026-22.37 22.371s10.025 22.37 22.37 22.37c12.346 0 22.37-10.025 22.37-22.37s-10.024-22.371-22.37-22.371zm0 1.844c11.347 0 20.525 9.179 20.525 20.526s-9.179 20.525-20.525 20.525c-11.348 0-20.525-9.179-20.525-20.525 0-11.347 9.178-20.526 20.525-20.526z"/></g><g fill="#F4F4F4"><path d="M383.354 197.507c-18.164 0-32.894 14.76-32.894 32.922 0 18.161 14.731 32.892 32.894 32.892 18.161 0 32.922-14.731 32.922-32.892 0-18.162-14.76-32.922-32.922-32.922zm0 1.845c17.163 0 31.076 13.912 31.076 31.077 0 17.164-13.913 31.047-31.076 31.047-17.166 0-31.048-13.884-31.048-31.047.001-17.165 13.882-31.077 31.048-31.077z"/><path d="M383.354 208.06c-12.346 0-22.371 10.026-22.371 22.371s10.025 22.37 22.371 22.37c12.344 0 22.369-10.025 22.369-22.37s-10.025-22.371-22.369-22.371zm0 1.844c11.348 0 20.523 9.179 20.523 20.526s-9.178 20.525-20.523 20.525c-11.348 0-20.526-9.179-20.526-20.525 0-11.347 9.179-20.526 20.526-20.526z"/></g><path fill="#F4F4F4" d="M466.839 197.507c-18.162 0-32.893 14.76-32.893 32.922 0 18.161 14.73 32.892 32.893 32.892s32.922-14.731 32.922-32.892c0-18.162-14.76-32.922-32.922-32.922zm0 1.845c17.165 0 31.077 13.912 31.077 31.077 0 17.164-13.912 31.047-31.077 31.047s-31.048-13.884-31.048-31.047c0-17.165 13.884-31.077 31.048-31.077z"/><path fill="#F4F4F4" d="M466.839 208.06c-12.346 0-22.371 10.026-22.371 22.371s10.025 22.37 22.371 22.37c12.344 0 22.371-10.025 22.371-22.37s-10.027-22.371-22.371-22.371zm0 1.844c11.348 0 20.525 9.179 20.525 20.526s-9.178 20.525-20.525 20.525-20.525-9.179-20.525-20.525c-.001-11.347 9.177-20.526 20.525-20.526z"/><g fill="#F4F4F4"><path d="M415.382 229.877v1.845h19.604v-1.845h-19.604zM331.952 229.877v1.845h19.517v-1.845h-19.517z"/><path d="M256.742 229.877v50.593h253.251v-50.593h-11.1v1.845h9.254v46.903H258.586v-46.903h9.399v-1.845h-11.243z"/></g><g fill="#F4F4F4"><path d="M415.382 148.384v1.846h19.604v-1.846h-19.604zM331.952 148.384v1.846h19.517v-1.846h-19.517z"/><path d="M256.742 99.636v50.594h11.243v-1.846h-9.399v-46.903h249.561v46.903h-9.254v1.846h11.1V99.636H256.742z"/></g></svg>

<?xml version="1.0" encoding="utf-8"?>
<!-- Generator: Adobe Illustrator 13.0.0, SVG Export Plug-In . SVG Version: 6.00 Build 14948)  -->
<!DOCTYPE svg [
	<!ENTITY ns_flows "http://ns.adobe.com/Flows/1.0/">
	<!ENTITY ns_extend "http://ns.adobe.com/Extensibility/1.0/">
	<!ENTITY ns_ai "http://ns.adobe.com/AdobeIllustrator/10.0/">
	<!ENTITY ns_graphs "http://ns.adobe.com/Graphs/1.0/">
	<!ENTITY ns_vars "http://ns.adobe.com/Variables/1.0/">
	<!ENTITY ns_imrep "http://ns.adobe.com/ImageReplacement/1.0/">
	<!ENTITY ns_sfw "http://ns.adobe.com/SaveForWeb/1.0/">
	<!ENTITY ns_custom "http://ns.adobe.com/GenericCustomNamespace/1.0/">
	<!ENTITY ns_adobe_xpath "http://ns.adobe.com/XPath/1.0/">
]>
<svg version="1.2" baseProfile="tiny"
	 id="Layer_3" xmlns:x="&ns_extend;" xmlns:i="&ns_ai;" xmlns:graph="&ns_graphs;" xmlns:rdf="http://www.w3.org/1999/02/22-rdf-syntax-ns#" xmlns:dc="http://purl.org/dc/elements/1.1/" xmlns:cc="http://creativecommons.org/ns#"
	 xmlns="http://www.w3.org/2000/svg" xmlns:xlink="http://www.w3.org/1999/xlink" xmlns:a="http://ns.adobe.com/AdobeSVGViewerExtensions/3.0/"
	 x="0px" y="0px" width="598.189px" height="350.26px" viewBox="0 0 598.189 350.26" xml:space="preserve">
<metadata  id="metadata55">
	<rdf:RDF>
		<cc:Work  rdf:about="">
			<dc:format>image/svg+xml</dc:format>
			<dc:type  rdf:resource="http://purl.org/dc/dcmitype/StillImage"></dc:type>
			<dc:title></dc:title>
		</cc:Work>
	</rdf:RDF>
	<sfw  xmlns="&ns_sfw;">
		<slices></slices>
		<sliceSourceBounds  x="679.97" y="-7652" width="562.29" height="16383" bottomLeftOrigin="true"></sliceSourceBounds>
	</sfw>
</metadata>
<path id="circle3" fill="#F4F4F4" d="M107.527,100.097c-49.126,0-88.963,39.837-88.963,88.959c0,49.126,39.837,88.963,88.963,88.963
	c49.125,0,88.963-39.836,88.963-88.963c0-49.125-39.836-88.963-88.963-88.963V100.097z M107.527,101.942
	c48.128,0,87.118,38.989,87.118,87.118c0,48.129-38.989,87.119-87.118,87.119c-48.133,0-87.122-38.984-87.122-87.12
	c0-48.126,38.989-87.115,87.118-87.115L107.527,101.942z"/>
<path id="circle5" fill="#F4F4F4" d="M107.527,151.53c-20.715,0-37.534,16.817-37.534,37.534c0,20.715,16.818,37.533,37.534,37.533
	c20.716,0,37.534-16.817,37.534-37.533S128.244,151.53,107.527,151.53z M107.527,153.375c19.718,0,35.689,15.97,35.689,35.689
	c0,19.718-15.97,35.688-35.689,35.688c-19.718,0-35.689-15.97-35.689-35.688S87.809,153.375,107.527,153.375z"/>
<path id="polygon7" fill="#F4F4F4" d="M107.527,129.934L107.527,129.934l4.526,17.182h-9.052L107.527,129.934z"/>
<path id="polygon9" fill="#F4F4F4" d="M65.698,147.231l15.365,8.965l-6.371,6.4L65.698,147.231L65.698,147.231z"/>
<path id="polygon11" fill="#F4F4F4" d="M65.583,184.537v9.053l-17.21-4.526L65.583,184.537L65.583,184.537z"/>
<path id="polygon13" fill="#F4F4F4" d="M74.692,215.528l6.371,6.398l-15.365,8.966L74.692,215.528L74.692,215.528z"/>
<path id="polygon15" fill="#F4F4F4" d="M103.001,231.002h9.052l-4.526,17.182L103.001,231.002L103.001,231.002z"/>
<path id="polygon17" fill="#F4F4F4" d="M140.39,215.528l8.937,15.335l-15.336-8.937L140.39,215.528z"/>
<path id="polygon19" fill="#F4F4F4" d="M149.475,184.537l17.239,4.526l-17.239,4.526V184.537L149.475,184.537z"/>
<path id="polygon21" fill="#F4F4F4" d="M149.326,147.26l-8.937,15.337l-6.4-6.4L149.326,147.26z"/>
<g id="g23">
	<path id="circle25" fill="#F4F4F4" d="M299.868,115.579c-18.162,0-32.892,14.73-32.892,32.892c0,18.162,14.73,32.922,32.892,32.922
		c18.161,0,32.922-14.759,32.922-32.922C332.79,130.309,318.031,115.579,299.868,115.579L299.868,115.579z M299.868,117.424
		c17.165,0,31.076,13.882,31.076,31.047c0,17.165-13.911,31.077-31.076,31.077c-17.164,0-31.047-13.912-31.047-31.077
		C268.821,131.306,282.704,117.424,299.868,117.424z"/>
	<path id="circle27" fill="#F4F4F4" d="M299.868,126.101c-12.345,0-22.37,10.025-22.37,22.37s10.025,22.371,22.37,22.371
		c12.346,0,22.37-10.026,22.37-22.371S312.214,126.101,299.868,126.101z M299.868,127.945c11.347,0,20.525,9.178,20.525,20.525
		s-9.179,20.525-20.525,20.525c-11.348,0-20.525-9.178-20.525-20.525S288.521,127.945,299.868,127.945z"/>
</g>
<g id="g29">
	<path id="circle31" fill="#F4F4F4" d="M383.354,115.579c-18.164,0-32.894,14.731-32.894,32.892
		c0,18.162,14.731,32.893,32.894,32.893c18.161,0,32.922-14.731,32.922-32.893C416.276,130.309,401.516,115.579,383.354,115.579z
		 M383.354,117.424c17.163,0,31.076,13.883,31.076,31.047c0,17.165-13.913,31.047-31.076,31.047
		c-17.166,0-31.048-13.883-31.048-31.047C352.307,131.306,366.188,117.424,383.354,117.424z"/>
	<path id="circle33" fill="#F4F4F4" d="M383.354,126.101c-12.346,0-22.371,10.025-22.371,22.37s10.025,22.371,22.371,22.371
		c12.344,0,22.369-10.026,22.369-22.371S395.698,126.101,383.354,126.101z M383.354,127.945c11.348,0,20.523,9.178,20.523,20.525
		s-9.178,20.525-20.523,20.525c-11.348,0-20.526-9.178-20.526-20.525S372.007,127.945,383.354,127.945z"/>
</g>
<g id="g35">
	<path id="circle37" fill="#F4F4F4" d="M466.839,115.579c-18.162,0-32.893,14.731-32.893,32.892
		c0,18.162,14.73,32.893,32.893,32.893s32.922-14.731,32.922-32.893C499.761,130.309,485.001,115.579,466.839,115.579z
		 M466.839,117.424c17.165,0,31.077,13.883,31.077,31.047c0,17.165-13.912,31.047-31.077,31.047s-31.048-13.883-31.048-31.047
		C435.791,131.306,449.675,117.424,466.839,117.424z"/>
	<path id="circle39" fill="#F4F4F4" d="M466.839,126.101c-12.346,0-22.371,10.025-22.371,22.37s10.025,22.371,22.371,22.371
		c12.344,0,22.371-10.026,22.371-22.371S479.183,126.101,466.839,126.101z M466.839,127.945c11.348,0,20.525,9.178,20.525,20.525
		s-9.178,20.525-20.525,20.525s-20.525-9.178-20.525-20.525S455.491,127.945,466.839,127.945z"/>
</g>
<g id="g41">
	<path id="circle43" fill="#F4F4F4" d="M547.962,34.457c-18.162,0-32.892,14.731-32.892,32.892
		c0,18.162,14.731,32.922,32.892,32.922c18.163,0,32.893-14.76,32.893-32.922c-0.009-18.161-14.742-32.892-32.896-32.892H547.962z
		 M547.962,36.302c17.165,0,31.048,13.884,31.048,31.047c0,17.165-13.883,31.077-31.048,31.077
		c-17.164,0-31.047-13.912-31.047-31.077c0-17.164,13.883-31.047,31.052-31.047H547.962z"/>
	<path id="circle45" fill="#F4F4F4" d="M547.962,44.979c-12.345,0-22.369,10.026-22.369,22.371s10.024,22.398,22.369,22.398
		c12.346,0,22.37-10.054,22.37-22.398S560.308,44.979,547.962,44.979z M547.962,46.823c11.349,0,20.525,9.178,20.525,20.526
		s-9.177,20.554-20.525,20.554c-11.348,0-20.524-9.206-20.524-20.554S536.614,46.823,547.962,46.823z"/>
</g>
<g id="g47">
	<path id="circle49" fill="#F4F4F4" d="M299.868,197.507c-18.162,0-32.892,14.759-32.892,32.922
		c0,18.161,14.73,32.892,32.892,32.892c18.161,0,32.922-14.73,32.922-32.892C332.79,212.267,318.031,197.507,299.868,197.507
		L299.868,197.507z M299.868,199.352c17.165,0,31.076,13.911,31.076,31.077c0,17.164-13.911,31.047-31.076,31.047
		c-17.164,0-31.047-13.883-31.047-31.047C268.821,213.264,282.704,199.352,299.868,199.352z"/>
	<path id="circle51" fill="#F4F4F4" d="M299.868,208.06c-12.345,0-22.37,10.026-22.37,22.371s10.025,22.37,22.37,22.37
		c12.346,0,22.37-10.025,22.37-22.37S312.214,208.06,299.868,208.06z M299.868,209.904c11.347,0,20.525,9.179,20.525,20.526
		c0,11.347-9.179,20.525-20.525,20.525c-11.348,0-20.525-9.179-20.525-20.525C279.343,219.083,288.521,209.904,299.868,209.904z"/>
</g>
<g id="g53">
	<path id="circle55" fill="#F4F4F4" d="M383.354,197.507c-18.164,0-32.894,14.76-32.894,32.922
		c0,18.161,14.731,32.892,32.894,32.892c18.161,0,32.922-14.731,32.922-32.892C416.276,212.267,401.516,197.507,383.354,197.507
		L383.354,197.507z M383.354,199.352c17.163,0,31.076,13.912,31.076,31.077c0,17.164-13.913,31.047-31.076,31.047
		c-17.166,0-31.048-13.884-31.048-31.047C352.307,213.264,366.188,199.352,383.354,199.352z"/>
	<path id="circle57" fill="#F4F4F4" d="M383.354,208.06c-12.346,0-22.371,10.026-22.371,22.371s10.025,22.37,22.371,22.37
		c12.344,0,22.369-10.025,22.369-22.37S395.698,208.06,383.354,208.06z M383.354,209.904c11.348,0,20.523,9.179,20.523,20.526
		c0,11.347-9.178,20.525-20.523,20.525c-11.348,0-20.526-9.179-20.526-20.525C362.828,219.083,372.007,209.904,383.354,209.904z"/>
</g>
<path id="circle59" fill="#F4F4F4" d="M466.839,197.507c-18.162,0-32.893,14.76-32.893,32.922c0,18.161,14.73,32.892,32.893,32.892
	s32.922-14.731,32.922-32.892C499.761,212.267,485.001,197.507,466.839,197.507L466.839,197.507z M466.839,199.352
	c17.165,0,31.077,13.912,31.077,31.077c0,17.164-13.912,31.047-31.077,31.047s-31.048-13.884-31.048-31.047
	C435.791,213.264,449.675,199.352,466.839,199.352z"/>
<path id="circle61" fill="#F4F4F4" d="M466.839,208.06c-12.346,0-22.371,10.026-22.371,22.371s10.025,22.37,22.371,22.37
	c12.344,0,22.371-10.025,22.371-22.37S479.183,208.06,466.839,208.06z M466.839,209.904c11.348,0,20.525,9.179,20.525,20.526
	c0,11.347-9.178,20.525-20.525,20.525s-20.525-9.179-20.525-20.525C446.313,219.083,455.491,209.904,466.839,209.904z"/>
<g id="g63">
	<path id="line65" fill="#F4F4F4" d="M415.382,229.877v1.845h19.604v-1.845H415.382z"/>
	<path id="line67" fill="#F4F4F4" d="M331.952,229.877v1.845h19.517v-1.845H331.952z"/>
	<path id="polyline69" fill="#F4F4F4" d="M256.742,229.877v0.923v48.747v0.923h0.922H509.07h0.923v-0.923V230.8v-0.923h-0.923
		h-10.177v1.845h9.254v46.903H258.586v-46.903h9.399v-1.845h-10.321H256.742z"/>
</g>
<g id="g71">
	<path id="line73" fill="#F4F4F4" d="M415.382,148.384v1.846h19.604v-1.846H415.382z"/>
	<path id="line75" fill="#F4F4F4" d="M331.952,148.384v1.846h19.517v-1.846H331.952z"/>
	<path id="polyline77" fill="#F4F4F4" d="M256.742,99.636v0.922v48.749v0.923h0.922h10.321v-1.846h-9.399v-46.903h249.561v46.903
		h-9.254v1.846h10.177h0.923v-0.923v-48.749v-0.922h-0.923H257.664H256.742z"/>
</g>
</svg>
